dist/assets/img/love.svg

<svg width="53" height="50" viewBox="0 0 53 50" fill="none" xmlns="http://www.w3.org/2000/svg">
<path d="M52.6963 15.289C51.9288 6.93754 45.9493 0.878357 38.4662 0.878357C33.4808 0.878357 28.9161 3.53056 26.3475 7.78129C23.8023 3.47558 19.4246 0.877357 14.5191 0.877357C7.03698 0.877357 1.05653 6.93654 0.290009 15.288C0.229335 15.6569 -0.0194296 17.5984 0.736975 20.7644C1.82709 25.331 4.34507 29.4848 8.01686 32.7738L26.3354 49.2079L44.9684 32.7748C48.6402 29.4848 51.1582 25.332 52.2483 20.7644C53.0047 17.5994 52.756 15.6579 52.6963 15.289ZM50.2795 20.3065C49.2844 24.4773 46.9778 28.2772 43.6154 31.2883L26.3475 46.5187L9.37596 31.2923C6.00754 28.2752 3.70192 24.4763 2.70585 20.3055C1.9899 17.3094 2.28417 15.6169 2.28518 15.6059L2.30035 15.505C2.95765 8.18817 8.09574 2.87676 14.5191 2.87676C19.2588 2.87676 23.4311 5.7559 25.4111 10.3895L26.3425 12.5719L27.2738 10.3895C29.2225 5.82688 33.6153 2.87776 38.4672 2.87776C44.8896 2.87776 50.0287 8.18917 50.6991 15.601C50.7011 15.6169 50.9954 17.3104 50.2795 20.3065Z" fill="black"/>
</svg>

<svg width="53" height="50" fill="none" xmlns="http://www.w3.org/2000/svg"><path d="M52.696 15.289C51.93 6.938 45.95.879 38.466.879c-4.985 0-9.55 2.652-12.119 6.902C23.803 3.476 19.425.877 14.52.877 7.037.877 1.057 6.937.29 15.288c-.06.369-.31 2.31.447 5.476 1.09 4.567 3.608 8.72 7.28 12.01l18.318 16.434 18.633-16.433c3.672-3.29 6.19-7.443 7.28-12.01.757-3.166.508-5.107.448-5.476zm-2.416 5.018c-.996 4.17-3.302 7.97-6.665 10.981l-17.268 15.23-16.97-15.225c-3.368-3.017-5.674-6.816-6.67-10.987-.716-2.996-.422-4.688-.42-4.7l.014-.1C2.958 8.188 8.096 2.877 14.52 2.877c4.739 0 8.911 2.879 10.891 7.513l.931 2.182.932-2.182c1.948-4.563 6.341-7.512 11.193-7.512C44.89 2.878 50.03 8.189 50.7 15.6c.002.016.296 1.71-.42 4.705z" fill="#000"/></svg>
